packages/gestalt/src/icons/drag-drop.svg

<svg width="24" height="24" xmlns="http://www.w3.org/2000/svg">
<path d="M0 10.3636V21.2727C0 22.7793 1.22073 24 2.72727 24H13.6364C15.1429 24 16.3636 22.7793 16.3636 21.2727V16.3636H21.2727C22.7793 16.3636 24 15.1429 24 13.6364V2.72727C24 1.22073 22.7793 0 21.2727 0H10.3636C8.85709 0 7.63636 1.22073 7.63636 2.72727V7.63636H2.72727C1.22073 7.63636 0 8.85709 0 10.3636ZM2.72727 10.3636H7.63636V13.6364C7.63636 15.1429 8.85709 16.3636 10.3636 16.3636H13.6364V21.2727H2.72727V10.3636Z"/>
</svg>

<svg width="24" height="24" xmlns="http://www.w3.org/2000/svg"><path fill="#B5B5B5" d="M0 10.364v10.909A2.727 2.727 0 002.727 24h10.91a2.727 2.727 0 002.727-2.727v-4.91h4.909A2.727 2.727 0 0024 13.637V2.727A2.727 2.727 0 0021.273 0h-10.91a2.727 2.727 0 00-2.727 2.727v4.91H2.727A2.727 2.727 0 000 10.363zm2.727 0h4.91v3.272a2.727 2.727 0 002.727 2.728h3.272v4.909H2.727v-10.91z"/></svg>
